components/Common/Svg/svgs/dribbleRoundBlack.svg

<svg
  width="48"
  height="48"
  viewBox="0 0 48 48"
  fill="none"
  xmlns="http://www.w3.org/2000/svg"
>
  <path
    d="M33.393 18.443C32.4394 16.7903 31.0669 15.4182 29.4139 14.4649C27.7385 13.489 25.9101 13.0005 23.9288 13.0005C21.9474 13.0005 20.119 13.489 18.4425 14.4649C16.7671 15.4409 15.4404 16.7676 14.4645 18.443C13.4885 20.1184 13 21.9479 13 23.9292C13 25.9106 13.4874 27.7401 14.4645 29.4155C15.4178 31.0684 16.7904 32.4406 18.4436 33.3935C20.119 34.3695 21.9474 34.858 23.9288 34.858C25.9101 34.858 27.7385 34.3695 29.415 33.3935C31.068 32.4403 32.4405 31.0682 33.3941 29.4155C34.3701 27.7401 34.8575 25.9106 34.8575 23.9292C34.8575 21.9479 34.3701 20.1184 33.393 18.443ZM23.9288 14.8147C26.1145 14.8147 28.0511 15.5141 29.7428 16.9119C28.7374 18.1949 27.2445 19.2506 25.2621 20.0812C24.167 18.0998 22.9801 16.4452 21.6982 15.1196C22.4247 14.9187 23.1749 14.8161 23.9288 14.8147ZM16.836 18.2463C17.6351 17.2315 18.6463 16.4035 19.7988 15.8201C21.1233 17.1326 22.3397 18.7709 23.449 20.738C21.2632 21.3938 18.9529 21.7216 16.5191 21.7216C15.8928 21.7216 15.4196 21.7074 15.0983 21.6779C15.4333 20.4259 16.025 19.2573 16.836 18.2463ZM14.8142 23.9292C14.8142 23.8702 14.8175 23.7981 14.8251 23.7107C14.8328 23.6232 14.836 23.5511 14.836 23.4921C15.1136 23.5074 15.5366 23.5139 16.1049 23.5139C19.0185 23.5139 21.7288 23.1129 24.2348 22.3118C24.4391 22.7194 24.6511 23.1784 24.8686 23.6888C23.426 24.009 21.9463 24.7882 20.4305 26.0276C18.9146 27.2669 17.8087 28.5707 17.1092 29.94C15.5792 28.2057 14.8142 26.2024 14.8142 23.9292ZM23.9288 33.0438C21.8588 33.0438 20.001 32.4023 18.354 31.1214C19.0108 29.8242 20.0195 28.5838 21.3824 27.4046C22.7441 26.2243 24.096 25.4888 25.4369 25.197C26.2828 27.5346 26.8549 29.9624 27.1418 32.4318C26.1176 32.832 25.0283 33.0395 23.9288 33.0438ZM31.6663 28.716C30.951 29.8685 29.9877 30.847 28.8467 31.5805C28.5844 29.3073 28.0817 27.092 27.3396 24.9347C28.3582 24.8626 29.2685 24.8254 30.0718 24.8254C30.945 24.8254 31.9144 24.8626 32.9778 24.9347C32.8351 26.2787 32.3865 27.5723 31.6663 28.716ZM30.3111 23.2517C29.0434 23.2517 27.8708 23.303 26.7921 23.4047C26.5636 22.8066 26.3157 22.2162 26.0489 21.6342C28.3068 20.6441 29.909 19.4419 30.8565 18.0277C32.1679 19.573 32.8827 21.3358 32.9985 23.3172C32.1111 23.2735 31.2149 23.2517 30.3111 23.2517Z"
    fill="white"
  ></path>
  <circle
    opacity="0.3"
    cx="24"
    cy="24"
    r="23.5"
    stroke="white"
  ></circle>
</svg>

<svg width="48" height="48" viewBox="0 0 48 48" fill="none" xmlns="http://www.w3.org/2000/svg"><path d="M33.393 18.443a10.855 10.855 0 0 0-3.98-3.978C27.739 13.489 25.91 13 23.93 13c-1.982 0-3.81.488-5.486 1.464a10.85 10.85 0 0 0-3.979 3.978C13.488 20.118 13 21.948 13 23.929c0 1.982.487 3.811 1.464 5.487a10.846 10.846 0 0 0 3.98 3.978c1.675.976 3.503 1.464 5.485 1.464 1.981 0 3.81-.488 5.486-1.464a10.854 10.854 0 0 0 3.98-3.978c.975-1.676 1.462-3.505 1.462-5.487 0-1.981-.487-3.81-1.464-5.486Zm-9.464-3.628c2.186 0 4.122.7 5.814 2.097-1.006 1.283-2.498 2.339-4.48 3.17-1.096-1.982-2.283-3.637-3.565-4.962a8.428 8.428 0 0 1 2.23-.305Zm-7.093 3.431a8.87 8.87 0 0 1 2.963-2.426c1.324 1.313 2.54 2.95 3.65 4.918-2.186.656-4.496.984-6.93.984-.626 0-1.1-.015-1.42-.044a9.344 9.344 0 0 1 1.737-3.432Zm-2.022 5.683c0-.059.004-.13.011-.218.008-.088.011-.16.011-.219.278.015.7.022 1.269.022 2.913 0 5.624-.401 8.13-1.202.204.407.416.866.634 1.377-1.443.32-2.923 1.1-4.439 2.339-1.515 1.239-2.621 2.543-3.32 3.912-1.53-1.734-2.296-3.738-2.296-6.01Zm9.115 9.115c-2.07 0-3.928-.642-5.575-1.923.657-1.297 1.666-2.537 3.028-3.716 1.362-1.18 2.714-1.916 4.055-2.208a32.174 32.174 0 0 1 1.705 7.235 8.924 8.924 0 0 1-3.213.612Zm7.737-4.328a9.128 9.128 0 0 1-2.82 2.864 31.456 31.456 0 0 0-1.506-6.645 39.16 39.16 0 0 1 2.732-.11c.873 0 1.842.038 2.906.11a8.85 8.85 0 0 1-1.312 3.781Zm-1.355-5.464c-1.268 0-2.44.051-3.519.153a29.59 29.59 0 0 0-.743-1.77c2.258-.99 3.86-2.193 4.808-3.607 1.31 1.545 2.026 3.308 2.142 5.29a54.645 54.645 0 0 0-2.688-.066Z" fill="#fff"/><circle opacity=".3" cx="24" cy="24" r="23.5" stroke="#fff"/></svg>
